layouts/icon-pack/spell_wind.svg

<?xml version="1.0" encoding="UTF-8"?>
<svg width="1200pt" height="1200pt" version="1.1" viewBox="0 0 1200 1200" xmlns="http://www.w3.org/2000/svg">
 <g fill="#fff">
  <path d="m976.24 620.86h-559.05c-74.902 0-146.74-29.754-199.7-82.719s-82.719-124.8-82.719-199.7 29.754-146.74 82.719-199.7 124.8-82.719 199.7-82.719h1.6875c72.953-0.13281 143.1 28.109 195.61 78.75l15.984 15.234c22.922 22 32.367 54.559 24.773 85.41-7.5938 30.852-31.066 55.312-61.582 64.16-30.516 8.8516-63.434 0.75-86.355-21.25l-15.914-15.258c-19.434-18.73-45.383-29.176-72.375-29.133h-1.8281c-37.344 0-71.855 19.922-90.527 52.266s-18.672 72.188 0 104.53 53.184 52.266 90.527 52.266h559.05c31.43 0.51172 60.254 17.57 75.824 44.879 15.57 27.305 15.57 60.805 0 88.109-15.57 27.309-44.395 44.367-75.824 44.879z"/>
  <path d="m582.75 1143.9c-55.695-0.042968-109.1-22.184-148.48-61.559-39.391-39.375-61.547-92.77-61.609-148.46 0.03125-61.426 24.43-120.33 67.844-163.78s102.29-67.906 163.72-67.992h393.28c24.148 0 46.465 12.883 58.539 33.797 12.074 20.914 12.074 46.68 0 67.594-12.074 20.914-34.391 33.797-58.539 33.797h-393.21c-25.559 0.03125-50.059 10.195-68.129 28.27-18.074 18.07-28.238 42.57-28.27 68.129 0 19.867 7.8828 38.922 21.918 52.984 14.035 14.059 33.074 21.977 52.941 22.016 9.0039-0.019531 17.727-3.1523 24.684-8.8672 6.9609-5.7148 11.727-13.664 13.496-22.492l0.16406-0.75c3.5742-17.562 13.98-32.988 28.926-42.879 14.945-9.8906 33.211-13.441 50.773-9.8672 17.562 3.5742 32.988 13.98 42.879 28.926 9.8906 14.945 13.441 33.211 9.8672 50.773v0.51562c-7.9805 39.426-29.344 74.883-60.465 100.37-31.125 25.484-70.098 39.434-110.32 39.48z"/>
 </g>
</svg>

<?xml version="1.0" encoding="UTF-8" standalone="no"?>
<!DOCTYPE svg PUBLIC "-//W3C//DTD SVG 1.1//EN" "http://www.w3.org/Graphics/SVG/1.1/DTD/svg11.dtd">
<svg width="100%" height="100%" viewBox="0 0 438 512" version="1.1" xmlns="http://www.w3.org/2000/svg" xmlns:xlink="http://www.w3.org/1999/xlink" xml:space="preserve" xmlns:serif="http://www.serif.com/" style="fill-rule:evenodd;clip-rule:evenodd;stroke-linejoin:round;stroke-miterlimit:2;">
    <g transform="matrix(1,0,0,1,-134.771,-56.0215)">
        <g transform="matrix(0.470639,0,0,0.470639,71.3426,29.6556)">
            <path d="M976.24,620.86L417.19,620.86C342.288,620.86 270.45,591.106 217.49,538.141C164.53,485.176 134.771,413.341 134.771,338.441C134.771,263.541 164.525,191.701 217.49,138.741C270.455,85.781 342.29,56.022 417.19,56.022L418.878,56.022C491.831,55.889 561.978,84.131 614.488,134.772L630.472,150.006C653.394,172.006 662.839,204.565 655.245,235.416C647.651,266.268 624.179,290.728 593.663,299.576C563.147,308.428 530.229,300.326 507.308,278.326L491.394,263.068C471.96,244.338 446.011,233.892 419.019,233.935L417.19,233.935C379.846,233.935 345.335,253.857 326.663,286.201C307.991,318.545 307.991,358.389 326.663,390.731C345.335,423.073 379.847,442.997 417.19,442.997L976.24,442.997C1007.67,443.509 1036.49,460.567 1052.06,487.876C1067.63,515.181 1067.63,548.681 1052.06,575.985C1036.49,603.294 1007.67,620.352 976.24,620.864L976.24,620.86Z" style="fill:white;fill-rule:nonzero;"/>
            <path d="M582.75,1143.9C527.055,1143.86 473.65,1121.72 434.27,1082.34C394.879,1042.97 372.723,989.571 372.661,933.881C372.692,872.455 397.091,813.551 440.505,770.101C483.919,726.651 542.795,702.195 604.225,702.109L997.505,702.109C1021.65,702.109 1043.97,714.992 1056.04,735.906C1068.12,756.82 1068.12,782.586 1056.04,803.5C1043.97,824.414 1021.65,837.297 997.505,837.297L604.295,837.297C578.736,837.328 554.236,847.492 536.166,865.567C518.092,883.637 507.928,908.137 507.896,933.696C507.896,953.563 515.779,972.618 529.814,986.68C543.849,1000.74 562.888,1008.66 582.755,1008.7C591.759,1008.68 600.482,1005.54 607.439,999.829C614.4,994.114 619.166,986.165 620.935,977.337L621.099,976.587C624.673,959.025 635.079,943.599 650.025,933.708C664.97,923.817 683.236,920.267 700.798,923.841C718.36,927.415 733.786,937.821 743.677,952.767C753.568,967.712 757.118,985.978 753.544,1003.54L753.544,1004.06C745.564,1043.48 724.2,1078.94 693.079,1104.42C661.954,1129.91 622.981,1143.86 582.759,1143.9L582.75,1143.9Z" style="fill:white;fill-rule:nonzero;"/>
        </g>
    </g>
</svg>
